X: 1
T:Billy's a bonny lad
M:2/4
L:1/8
K:D
fe fd| ce eg| fe fd| g2fe | \
fe fd| ce eg| fa ec | d2d2 :|
|:A>B AG | FD DF | AB Ac | d2 cB | \
AB AG | FD Dg | fa ec | d2 d2 :|
